X:14
T:Cresting Wave
R:jig
C:Paul S. Cranford
O:Cape Breton Island
S:http://www.cranfordpub.com
D:currently unrecorded
B:currently unpublished in book form
Z:psc, (re-formatted,updated 9/17/04)
N:
H:                                                        copyrights Cranford Publications, SOCAN
L:1/8
M:6/8
Q:300
K:A
c/d/|eAc BEG|ADF ECA,|eAc BGE|FBB Bcd|
eAc BEG|ADF ECA,|B,ba geg|{g}a3 a2:|
|:(3(e/f/g/)|aea fda|edc Bbg|aea fda|ecA B(3(efg)|
aea fda|edc Bbg|aeb aec|A3 A2:|
